!!!ONB: MCCC : ILB0188_01 : Extracted Monophonic Melody
!!!COM: Beethoven, Ludwig van
!!!OPR: Piano Sonata No.27
!!!OMV: 1
!!!SCT: Op.90
!!!ODT: 1814///
**kern
*thru
*staff1
*Ipiano
*clefG2
*k[f#]
*e:
*M3/4
*MM144
8g
8r
=1
4.g
8f#
8e
8r
=2
8a
8r
4r
4a
=3
4.a
8g
4a
=4
4b
4r
8b
8r
=5
4.b
8a
8g
8r
=6
8cc#
8r
4r
4cc#
=7
4.cc#
8b
4cc#
=8
4dd
4r
4dd[
=9
4dd]
4gg
4ee
=10
4dd
4cc
[4cc
=11
4cc]
4aa
[4cc
=12
4cc]
4b
4b[
=13
4b]
4g
4g[
=14
4g]
4e
4e[
=15
4e]
4G
4E
=16
2B
4eee[
=17
4.eee]
8ddd#
4eee
=18
2f#
4f#
=19
4.f#
8g
8a
8g
=20
4f#
4e
[4eee
=21
4.eee]
8ddd#
4eee
=22
2f#
4f#
=23
4.f#
8a
8g
8f#
=24
4e
4r
4b
=25
2b
4ee
=26
2ee
4bb
=27
2bb
4eee
=28
2eee
*8va
8fff
8r
=29
4.fff
16eee
16ddd
16ccc
16bb
16aa
16gg
*X8va
=30
16ff
16ee
16dd
16cc
24b
24a
24g
24f
24e
24d
4r
=31
8G
8r
4r
8f
8r
=32
8e
8r
4r
8ddd
8r
=33
4.ddd
16ccc
16bb
16aa
16gg#
16ff#
16ee
=34
16dd
16cc
16b
16a
24g#
24f#
24e
24d
24c
24B
20A
20G#
20F#
20E
20D#
=35
4E
4r
8d
8r
=36
8c
8r
4r
4bb-
=37
4.bb-
16aa
16gg
16ff
16ee-
16dd
16cc
=38
16b-
16a
16g
16f#
12e-
12d
12c
4B-
=39
[2.B-
=40
2B-]
4g
=41
2g
4cc#
=42
2cc#
4gg
=43
2gg
4ff#
=44
2ee#
4ff#
=45
2.ff#
=46
2.bb
=47
8b
8r
8cc
8r
4r
=48
8cc
8r
8dd#
8r
4r
=49
8dd#
8r
8ee
8r
4r
=50
8ee
8r
8ee#
8r
4r
=51
8ee
8ee#
8ee#
8ee#
8ee#
8ee#
=52
8ee#
8ee#
8ee#
8ee#
8ee#
8ee#
=53
*8va
8fff#
8ggg
8ggg
8ggg
8ggg
8ggg
=54
8ggg
8ggg
8ggg
8ggg
8ggg
8ggg
=55
4ggg
2fff#
*X8va
=56
4ff#
[2bb
=57
4bb]
[2ff#
=58
4ff#]
[2b
=59
4b]
4g
4f#
=60
2f#
4a#
=61
8r
8gg
4.ggg
8fff#
=62
8r
8fff#
4.ccc#
8bb
=63
8r
8bb
4.gg
8ff#
=64
8r
8ff#
4.cc#
8b
=65
4b
4g
4f#
=66
8f#
8d
8B
8G
8F#
8A#
=67
4B
4r
4r
=68
2.B
=69
2c
4g[
=70
2g]
4f#
=71
4f#
4r
4r
=72
2.B
=73
2c
4g[
=74
2g]
4f#
=75
4r
4r
4g[
=76
2g]
4f#
=77
4r
4r
4g[
=78
2g]
4a#
=79
4b
4r
4r
=80
4b
4r
4r
=81
4b
4r
4r
=82
2.b
=83
2.b
=84
2b
4aa
=85
4.aa
8gg
8ff#
8b
=86
4bb
8b
8b
4bb
=87
4.bb
8aa
8bb
8b
=88
4ccc
4r
4ccc
=89
4.ccc
8bb
8aa
8r
=90
4ddd
4r
4ddd
=91
4.ddd
8ccc
8ddd
8r
=92
4.eee-
8ddd
8eee-
8r
=93
4.e-
8d
8e-
8r
=94
4.g-
8f
8g-
8r
=95
4.gg-
8ff
8gg-
8r
=96
4.ccc
8bb
8ccc
8r
=97
4.A
8G#
8A
8r
=98
*8va
4.fff#
8eee#
8fff#
*X8va
8r
=99
[4.cc
8cc]
8cc
8r
=100
4b
8r
8ff
4ee
=101
4ee-
8r
8ee-
4dd
=102
4cc#
8r
8cc
4b
=103
8b-
8r
8a
8r
8a-
8r
=104
8g
8r
8f#
8r
8f
8r
=105
8e
8r
8e-
8r
8d
8r
=106
8c#
8r
8c
8r
8B
8r
=107
8B-
8r
8A
8r
8A-
8r
=108
8A-
8G
2g[
=109
2g]
4g[
=110
4g]
4cc
4a
=111
4g
4f
4f[
=112
4f]
4dd
4f[
=113
4f]
4e
16e
16g
16cc
16ee
=114
16ff
16cc
16a
16f
16a
16cc
16ff
16aa
16aa
16dd
16aa
16ddd
=115
16aa
16dd
16aa
16bb-
16gg
16dd
16gg
16bb-
16gg
16dd-
16gg
16bb-
=116
16gg
16cc
16gg
16bb-
16ee
16cc
16ee
16gg
16gg
16ee
16gg
16ccc
=117
16gg
16ee
16gg
16ccc
16aa
16ff
16aa
16ccc
16aa
16ff
16aa
16ccc
=118
*k[]
16aa
16ff
16aa
16ddd
16aa
16ff
16aa
16ddd
16bb-
16ff
16bb-
16ddd
=119
16bb
16ff
16bb
16ddd
24bb
24ee
24bb
8ddd
16bb
16ee
16bb
16ddd
=120
16bb
16ee
16bb
16ddd
16bb
16ee
16bb
16ddd
16bb
16ee
16bb
16ddd
=121
16bb
16ee
16bb
16ccc
16aa
16ee
16aa
16ccc
16aa
16ee
16aa
16ccc
=122
16aa
16dd
16aa
16bb
16gg#
16dd
16gg#
16bb
16gg#
16dd
16gg#
16bb
=123
16gg#
16cc
16gg#
16bb
16gg#
16aa
16cc
16aa
16gg#
16aa
16cc
16aa
=124
16aa
16b
16aa
16bb
16aa
16b
16aa
16bb
16aa
16b
16aa
16bb
=125
16aa
16b
16aa
16bb
16aa
16b
16aa
16bb
16aa
16b
16aa
16bb
=126
16aa
16b
16aa
16bb
16aa
16b
16aa
16bb
16aa
16b
16aa
16bb
=127
16gg
16b
16gg
16bb
16gg
16b
16gg
16bb
16bb
16ee
16bb
16eee
=128
*8va
16ccc
16ee
16ccc
16eee
16ccc
16ee
16ccc
16eee
16ccc
16ee
16ccc
16eee
=129
16ccc#
16gg
16ccc#
16eee
16ccc#
16gg
16ccc#
16eee
16ccc#
16gg
16ccc#
16eee
=130
16bb
16gg
16bb
16eee
16ggg
16fff#
16eee
16ddd#
16eee
16ddd#
16eee
16fff#
=131
*k[f#]
16ggg
16fff#
16eee
16ddd#
16ggg
16fff#
16eee
16ddd#
16ggg
16fff#
16eee
16ddd#
=132
16ggg
16fff#
16eee
16ddd#
8eee
8r
4r
=133
8ggg
8fff#
8eee
8ddd#
4eee
=134
4ggg
4fff#
4eee
=135
4ddd#
4eee
4r
=136
2ggg
4fff#[
=137
4fff#]
4eee
*X8va
4r
=138
2g
8f#
8e
=139
4e
4r
4r
=140
4r
4g
8f#
8e
=141
8e
8r
8r
8g
8f#
8e
=142
8r
*8va
8ggg
8fff#
8eee
*X8va
8r
8g
=143
8f#
8e
4r
8g
8r
=144
4.g
8f#
8e
8r
=145
8a
8r
4r
4a
=146
4.a
8g
4a
=147
4b
4r
8b
8r
=148
4.b
8a
8g
8r
=149
8cc#
8r
4r
4cc#
=150
4.cc#
8b
4cc#
=151
4dd
4r
4dd[
=152
4dd]
4gg
4ee
=153
4dd
4cc
[4cc
=154
4cc]
4aa
[4cc
=155
4cc]
4b
4b[
=156
4b]
4g
4g[
=157
4g]
4e
4e[
=158
4e]
4G
4E
=159
2B
4eee[
=160
4.eee]
8ddd#
4eee
=161
2f#
4f#
=162
4.f#
8g
8a
8g
=163
4f#
4e
[4eee
=164
4.eee]
8ddd#
4eee
=165
2f#
4f#
=166
4.f#
8a
8g
8f#
=167
4e
4r
4g
=168
2g
4cc
=169
2cc
4gg
=170
2gg
4ccc
=171
2ccc
*8va
8fff
8r
=172
4.fff
16eee
16ddd
16ccc
16bb
16aa
16gg
*X8va
=173
16ff
16ee
16dd
16cc
24b
24a
24g
24f
24e
24d
4r
=174
8G
8r
4r
8f
8r
=175
8e
8r
4r
8ddd
8r
=176
4.ddd
16ccc
16bb
16aa
16gg#
16ff#
16ee
=177
16dd
16cc
16b
16a
24g#
24f#
24e
24d
24c
24B
20A
20G#
20F#
20E
20D#
=178
4E
4r
8d
8r
=179
8c
8r
4r
4ccc
=180
4.ccc
16bb-
16aa
16gg
16ff
16ee
16dd
=181
16cc
16b-
16a
16g
20f
20e
20d
20c
20B-
4A
=182
2A
4d#
=183
2d#
4a
=184
2a
4dd#
=185
2dd#
4ccc
=186
2ccc
4bb
=187
2aa#
4bb
=188
2.bb
=189
2.eee
=190
8ee
8r
8ff
8r
4r
=191
8ff
8r
8gg#
8r
4r
=192
8gg#
8r
8aa
8r
4r
=193
8aa
8r
8aa#
8r
4r
=194
8aa
8aa#
8aa#
8aa#
8aa#
8aa#
=195
8aa#
8aa#
8aa#
8aa#
8aa#
8aa#
=196
*8va
8bbb
8cccc
8cccc
8cccc
8cccc
8cccc
=197
8cccc
8cccc
8cccc
8cccc
8cccc
8cccc
*X8va
=198
4cccc
[2bbb
=199
4bbb]
[2eee
=200
4eee]
[2bb
=201
4bb]
[2ee
=202
4ee]
4cc
4b
=203
2b
4dd#
=204
8ee
8cc
4.ccc
8bb
=205
8r
8bb
4.ff#
8ee
=206
8r
8ee
4.cc
8b
=207
8r
8b
4.f#
8e
=208
4e
4c
4B
=209
8B
8G
8E
8C
8BB
8D#
=210
4E
4r
4r
=211
2.e
=212
2f
4cc[
=213
2cc]
4b
=214
4b
4r
4r
=215
2.E
=216
2F
4c[
=217
2c]
4B
=218
4r
4r
4c[
=219
2c]
4B
=220
4r
4r
4c[
=221
2c]
4d#
=222
4e
4r
4cc[
=223
2cc]
4b
=224
4r
4r
4cc[
=225
2cc]
4b
=226
4r
4r
4cc[
=227
2cc]
4dd#
=228
4ee
4r
[4ccc
=229
2ccc]
4bb
=230
2.r
=231
4r
4r
4ff#
=232
4.gg
8ff#
4ee
=233
4aa
4r
4aa
=234
4.aa
8gg
4aa
=235
4bb
4r
4bb
=236
4.bb
8aa
4bb
=237
4ccc
4r
[4eee
=238
4.eee]
8ddd#
4eee
=239
2f#
4f#
=240
4.f#
8g
8a
8g
=241
4f#
4e
[4eee
=242
4.eee]
8ddd#
4eee
=243
2f#
4f#
=244
4.f#
8a
8g
8f#
=245
4e
4r
==
*-
